assets/logos/buildroot.svg

<svg class="typst-doc" viewBox="0 0 97.1464566929134 114.0424566929134" width="97.1464566929134pt" height="114.0424566929134pt" xmlns="http://www.w3.org/2000/svg" xmlns:xlink="http://www.w3.org/1999/xlink" xmlns:h5="http://www.w3.org/1999/xhtml">
    <path class="typst-shape" fill="#ffffff" fill-rule="nonzero" d="M 0 0v 114.04246 h 97.146454 v -114.04246 Z "/>
    <g>
        <g class="typst-group" transform="matrix(1 0 0 1 14.173228346456693 14.173228346456693)">
            <g>
                <path class="typst-shape" fill="#000000" fill-rule="nonzero" d="M 0 0m 0 5 c 0 -2.7614238 2.2385762 -5 5 -5 h 58.8 c 2.761425 0 5.000004 2.2385762 5.000004 5 v 75.696 c 0 2.7614212 -2.2385788 5 -5.000004 5 h -58.8 c -2.7614238 0 -5 -2.2385788 -5 -5 Z "/>
                <g class="typst-group" transform="matrix(1 0 0 1 8 19.616)">
                    <g/>
                </g>
                <g class="typst-group" transform="matrix(1 0 0 1 8 19.616)">
                    <g/>
                </g>
                <g class="typst-group" transform="matrix(1 0 0 1 8 8)">
                    <g>
                        <g class="typst-text" transform="matrix(1 0 0 -1 0 8.976000000000003)">
                            <use xlink:href="#gB3CB5C71C376FEAC35A5CE3E9D70B056" x="15.84" y="0" fill="#ffff00" fill-rule="nonzero"/>
                            <use xlink:href="#gB3CB5C71C376FEAC35A5CE3E9D70B056" x="21.12" y="0" fill="#ffff00" fill-rule="nonzero"/>
                            <use xlink:href="#gB3CB5C71C376FEAC35A5CE3E9D70B056" x="26.400000000000002" y="0" fill="#ffff00" fill-rule="nonzero"/>
                        </g>
                    </g>
                </g>
                <g class="typst-group" transform="matrix(1 0 0 1 60.80000000000001 8)">
                    <g/>
                </g>
                <g class="typst-group" transform="matrix(1 0 0 1 8 31.232000000000003)">
                    <g/>
                </g>
                <g class="typst-group" transform="matrix(1 0 0 1 8 31.232000000000003)">
                    <g/>
                </g>
                <g class="typst-group" transform="matrix(1 0 0 1 8 31.232000000000003)">
                    <g/>
                </g>
                <g class="typst-group" transform="matrix(1 0 0 1 8 19.616)">
                    <g>
                        <g class="typst-text" transform="matrix(1 0 0 -1 0 8.976000000000003)">
                            <use xlink:href="#g4EE50823DE1072B888352BF5ED93E90B" x="5.28" y="0" fill="#ffff00" fill-rule="nonzero"/>
                            <use xlink:href="#gF9D31F08CF713FA33A044CE9199C2BD0" x="15.84" y="0" fill="#ffff00" fill-rule="nonzero"/>
                            <use xlink:href="#g553CA0615203AE7EF2B51E16776E3FE0" x="36.96" y="0" fill="#ffff00" fill-rule="nonzero"/>
                        </g>
                    </g>
                </g>
                <g class="typst-group" transform="matrix(1 0 0 1 60.80000000000001 19.616)">
                    <g/>
                </g>
                <g class="typst-group" transform="matrix(1 0 0 1 8 42.848000000000006)">
                    <g/>
                </g>
                <g class="typst-group" transform="matrix(1 0 0 1 8 42.848000000000006)">
                    <g/>
                </g>
                <g class="typst-group" transform="matrix(1 0 0 1 8 42.848000000000006)">
                    <g/>
                </g>
                <g class="typst-group" transform="matrix(1 0 0 1 8 31.232000000000003)">
                    <g>
                        <g class="typst-text" transform="matrix(1 0 0 -1 0 8.976000000000003)">
                            <use xlink:href="#gD7BC2388059FC0B3DF9C32F4768A0A47" x="0" y="0" fill="#ffff00" fill-rule="nonzero"/>
                            <use xlink:href="#g1977475DBC59169954969A1DA0562274" x="21.12" y="0" fill="#ffff00" fill-rule="nonzero"/>
                            <use xlink:href="#g1977475DBC59169954969A1DA0562274" x="36.96" y="0" fill="#ffff00" fill-rule="nonzero"/>
                            <use xlink:href="#gD7BC2388059FC0B3DF9C32F4768A0A47" x="42.24" y="0" fill="#ffff00" fill-rule="nonzero"/>
                        </g>
                    </g>
                </g>
                <g class="typst-group" transform="matrix(1 0 0 1 60.80000000000001 31.232000000000003)">
                    <g/>
                </g>
                <g class="typst-group" transform="matrix(1 0 0 1 8 54.464000000000006)">
                    <g/>
                </g>
                <g class="typst-group" transform="matrix(1 0 0 1 8 54.464000000000006)">
                    <g/>
                </g>
                <g class="typst-group" transform="matrix(1 0 0 1 8 54.464000000000006)">
                    <g/>
                </g>
                <g class="typst-group" transform="matrix(1 0 0 1 8 42.848000000000006)">
                    <g>
                        <g class="typst-text" transform="matrix(1 0 0 -1 0 8.976000000000003)">
                            <use xlink:href="#g7F30B59DCAF383D6B34C412A1FA2300E" x="0" y="0" fill="#ffff00" fill-rule="nonzero"/>
                            <use xlink:href="#gEB20B197638B23C20845973F58CB19AC" x="5.28" y="0" fill="#ffff00" fill-rule="nonzero"/>
                            <use xlink:href="#gB3CB5C71C376FEAC35A5CE3E9D70B056" x="15.84" y="0" fill="#ffff00" fill-rule="nonzero"/>
                            <use xlink:href="#g1977475DBC59169954969A1DA0562274" x="21.12" y="0" fill="#ffff00" fill-rule="nonzero"/>
                            <use xlink:href="#g363496F2D5142F8F4982DAF4CE1D3779" x="31.680000000000003" y="0" fill="#ffff00" fill-rule="nonzero"/>
                            <use xlink:href="#gEB20B197638B23C20845973F58CB19AC" x="36.96" y="0" fill="#ffff00" fill-rule="nonzero"/>
                            <use xlink:href="#g7F30B59DCAF383D6B34C412A1FA2300E" x="42.24" y="0" fill="#ffff00" fill-rule="nonzero"/>
                        </g>
                    </g>
                </g>
                <g class="typst-group" transform="matrix(1 0 0 1 60.80000000000001 42.848000000000006)">
                    <g/>
                </g>
                <g class="typst-group" transform="matrix(1 0 0 1 8 66.08)">
                    <g/>
                </g>
                <g class="typst-group" transform="matrix(1 0 0 1 8 66.08)">
                    <g/>
                </g>
                <g class="typst-group" transform="matrix(1 0 0 1 8 66.08)">
                    <g/>
                </g>
                <g class="typst-group" transform="matrix(1 0 0 1 8 54.464000000000006)">
                    <g>
                        <g class="typst-text" transform="matrix(1 0 0 -1 0 8.976000000000003)">
                            <use xlink:href="#gF9D31F08CF713FA33A044CE9199C2BD0" x="10.56" y="0" fill="#ffff00" fill-rule="nonzero"/>
                            <use xlink:href="#g7F30B59DCAF383D6B34C412A1FA2300E" x="21.12" y="0" fill="#ffff00" fill-rule="nonzero"/>
                            <use xlink:href="#g7F30B59DCAF383D6B34C412A1FA2300E" x="26.400000000000002" y="0" fill="#ffff00" fill-rule="nonzero"/>
                            <use xlink:href="#g7F30B59DCAF383D6B34C412A1FA2300E" x="31.680000000000003" y="0" fill="#ffff00" fill-rule="nonzero"/>
                            <use xlink:href="#g7F30B59DCAF383D6B34C412A1FA2300E" x="36.96" y="0" fill="#ffff00" fill-rule="nonzero"/>
                            <use xlink:href="#gF9D31F08CF713FA33A044CE9199C2BD0" x="47.52" y="0" fill="#ffff00" fill-rule="nonzero"/>
                        </g>
                    </g>
                </g>
                <g class="typst-group" transform="matrix(1 0 0 1 60.80000000000001 54.464000000000006)">
                    <g/>
                </g>
                <g class="typst-group" transform="matrix(1 0 0 1 8 66.08)">
                    <g/>
                </g>
                <g class="typst-group" transform="matrix(1 0 0 1 8 77.69600000000001)">
                    <g/>
                </g>
            </g>
        </g>
    </g>
    <defs id="glyph">
        <symbol id="gB3CB5C71C376FEAC35A5CE3E9D70B056" overflow="visible">
            <path d="M 0 0m 0.528 -1.2144 v 0.9944 h 4.224 v -0.9944 h -4.224 Z "/>
        </symbol>
        <symbol id="g4EE50823DE1072B888352BF5ED93E90B" overflow="visible">
            <path d="M 0 0m 0.528 -0.968 l 3.08 8.272 h 1.1439998 l -3.08 -8.272 h -1.1439999 Z "/>
        </symbol>
        <symbol id="gF9D31F08CF713FA33A044CE9199C2BD0" overflow="visible">
            <path d="M 0 0m 2.2792 5.676 l -1.0208001 1.2319999 h 1.2144 l 0.9416001 -1.2319999 h -1.1352 Z "/>
        </symbol>
        <symbol id="g553CA0615203AE7EF2B51E16776E3FE0" overflow="visible">
            <path d="M 0 0m 3.5992 -0.968 l -3.0712 8.272 h 1.1439999 l 3.0712 -8.272 h -1.1439998 Z "/>
        </symbol>
        <symbol id="gD7BC2388059FC0B3DF9C32F4768A0A47" overflow="visible">
            <path d="M 0 0m 2.0856 -0.968 v 8.272 h 1.1088002 v -8.272 h -1.1088002 Z "/>
        </symbol>
        <symbol id="g1977475DBC59169954969A1DA0562274" overflow="visible">
            <path d="M 0 0m 2.6399999 3.4584 q -0.37839985 0 -0.5983999 0.20239997 q -0.22000003 0.20239997 -0.22000003 0.5367999 q 0 0.32560015 0.22000003 0.5279999 q 0.22000003 0.20240021 0.5983999 0.20240021 q 0.3784001 0 0.5984001 -0.20240021 q 0.22000003 -0.20239973 0.22000003 -0.5279999 q 0 -0.33439994 -0.22000003 -0.5367999 q -0.22000003 -0.20239997 -0.5984001 -0.20239997 Z m 0 -3.5464 q -0.37839985 0 -0.5983999 0.2024 q -0.22000003 0.2024 -0.22000003 0.528 q 0 0.33439994 0.22000003 0.5367999 q 0.22000003 0.20240009 0.5983999 0.20240009 q 0.3784001 0 0.5984001 -0.20240009 q 0.22000003 -0.20239997 0.22000003 -0.5367999 q 0 -0.32560003 -0.22000003 -0.528 q -0.22000003 -0.2024 -0.5984001 -0.2024 Z "/>
        </symbol>
        <symbol id="g7F30B59DCAF383D6B34C412A1FA2300E" overflow="visible">
            <path d="M 0 0m 1.232 2.3936 v 1.0208001 h 2.816 v -1.0208001 h -2.816 Z "/>
        </symbol>
        <symbol id="gEB20B197638B23C20845973F58CB19AC" overflow="visible">
            <path d="M 0 0m 2.6399999 -0.088 q -0.36959982 0 -0.59399986 0.2244 q -0.22440004 0.2244 -0.22440004 0.5852 q 0 0.36079997 0.22440004 0.5896 q 0.22440004 0.22879994 0.59399986 0.22879994 q 0.36960006 0 0.5940001 -0.22879994 q 0.22440004 -0.22880006 0.22440004 -0.5896 q 0 -0.3608 -0.22440004 -0.5852 q -0.22440004 -0.2244 -0.5940001 -0.2244 Z "/>
        </symbol>
        <symbol id="g363496F2D5142F8F4982DAF4CE1D3779" overflow="visible">
            <path d="M 0 0m -4.752 -1.2144 v 0.9944 h 9.504 v -0.9944 h -9.504 Z "/>
        </symbol>
    </defs>
</svg>

<svg class="typst-doc" viewBox="0 0 97.1465 114.04250000000002" width="97.1465" height="114.04250000000002" xmlns="http://www.w3.org/2000/svg" xmlns:xlink="http://www.w3.org/1999/xlink" xmlns:h5="http://www.w3.org/1999/xhtml">
    <g>
        <g transform="translate(14.17325 14.17325)">
            <g class="typst-group">
                <g>
                    <g transform="translate(-0 -0)">
                        <path class="typst-shape" fill="#000000" d="M 0 5 C 0 2.2385762 2.2385762 0 5 0 L 63.8 0 C 66.561424 0 68.8 2.2385762 68.8 5 L 68.8 80.696 C 68.8 83.45742 66.561424 85.696 63.8 85.696 L 5 85.696 C 2.2385762 85.696 0 83.45742 0 80.696 Z "/>
                    </g>
                    <g transform="translate(8 19.616)">
                        <g class="typst-group">
                            <g/>
                        </g>
                    </g>
                    <g transform="translate(8 19.616)">
                        <g class="typst-group">
                            <g/>
                        </g>
                    </g>
                    <g transform="translate(8 8)">
                        <g class="typst-group">
                            <g>
                                <g transform="translate(0 8.976)">
                                    <g class="typst-text" transform="scale(1, -1)">
                                        <use xlink:href="#g45C544E5050795A0DB9B642A0F86EEF6" x="15.84" fill="#ffff00"/>
                                        <use xlink:href="#g45C544E5050795A0DB9B642A0F86EEF6" x="21.12" fill="#ffff00"/>
                                        <use xlink:href="#g45C544E5050795A0DB9B642A0F86EEF6" x="26.400000000000002" fill="#ffff00"/>
                                    </g>
                                </g>
                            </g>
                        </g>
                    </g>
                    <g transform="translate(60.8 8)">
                        <g class="typst-group">
                            <g/>
                        </g>
                    </g>
                    <g transform="translate(8 31.232000000000003)">
                        <g class="typst-group">
                            <g/>
                        </g>
                    </g>
                    <g transform="translate(8 31.232000000000003)">
                        <g class="typst-group">
                            <g/>
                        </g>
                    </g>
                    <g transform="translate(8 31.232000000000003)">
                        <g class="typst-group">
                            <g/>
                        </g>
                    </g>
                    <g transform="translate(8 19.616)">
                        <g class="typst-group">
                            <g>
                                <g transform="translate(0 8.976)">
                                    <g class="typst-text" transform="scale(1, -1)">
                                        <use xlink:href="#gEA462781DB655E9FC41D13FE877043C1" x="5.28" fill="#ffff00"/>
                                        <use xlink:href="#gBC852F94A0F483E722D5840709B019EA" x="15.84" fill="#ffff00"/>
                                        <use xlink:href="#g40C668FB4E37D9F21E1980C2683B7C07" x="36.96" fill="#ffff00"/>
                                    </g>
                                </g>
                            </g>
                        </g>
                    </g>
                    <g transform="translate(60.8 19.616)">
                        <g class="typst-group">
                            <g/>
                        </g>
                    </g>
                    <g transform="translate(8 42.848000000000006)">
                        <g class="typst-group">
                            <g/>
                        </g>
                    </g>
                    <g transform="translate(8 42.848000000000006)">
                        <g class="typst-group">
                            <g/>
                        </g>
                    </g>
                    <g transform="translate(8 42.848000000000006)">
                        <g class="typst-group">
                            <g/>
                        </g>
                    </g>
                    <g transform="translate(8 31.232000000000003)">
                        <g class="typst-group">
                            <g>
                                <g transform="translate(0 8.976)">
                                    <g class="typst-text" transform="scale(1, -1)">
                                        <use xlink:href="#g9E2918126B06D8427DFD8C44236F351E" x="0" fill="#ffff00"/>
                                        <use xlink:href="#g8EA9D70746F003244FAF6FAAA20098B7" x="21.12" fill="#ffff00"/>
                                        <use xlink:href="#g8EA9D70746F003244FAF6FAAA20098B7" x="36.96" fill="#ffff00"/>
                                        <use xlink:href="#g9E2918126B06D8427DFD8C44236F351E" x="42.24" fill="#ffff00"/>
                                    </g>
                                </g>
                            </g>
                        </g>
                    </g>
                    <g transform="translate(60.8 31.232000000000003)">
                        <g class="typst-group">
                            <g/>
                        </g>
                    </g>
                    <g transform="translate(8 54.464000000000006)">
                        <g class="typst-group">
                            <g/>
                        </g>
                    </g>
                    <g transform="translate(8 54.464000000000006)">
                        <g class="typst-group">
                            <g/>
                        </g>
                    </g>
                    <g transform="translate(8 54.464000000000006)">
                        <g class="typst-group">
                            <g/>
                        </g>
                    </g>
                    <g transform="translate(8 42.848000000000006)">
                        <g class="typst-group">
                            <g>
                                <g transform="translate(0 8.976)">
                                    <g class="typst-text" transform="scale(1, -1)">
                                        <use xlink:href="#gFBD659FA53EE4C06163ABC484E574054" x="0" fill="#ffff00"/>
                                        <use xlink:href="#g57025DAD0FEDA5EF754FB8ABC27D245D" x="5.28" fill="#ffff00"/>
                                        <use xlink:href="#g45C544E5050795A0DB9B642A0F86EEF6" x="15.84" fill="#ffff00"/>
                                        <use xlink:href="#g8EA9D70746F003244FAF6FAAA20098B7" x="21.12" fill="#ffff00"/>
                                        <use xlink:href="#gC6C8A06ACA3F2258CFC932E1F8DC0306" x="31.680000000000003" fill="#ffff00"/>
                                        <use xlink:href="#g57025DAD0FEDA5EF754FB8ABC27D245D" x="36.96" fill="#ffff00"/>
                                        <use xlink:href="#gFBD659FA53EE4C06163ABC484E574054" x="42.24" fill="#ffff00"/>
                                    </g>
                                </g>
                            </g>
                        </g>
                    </g>
                    <g transform="translate(60.8 42.848000000000006)">
                        <g class="typst-group">
                            <g/>
                        </g>
                    </g>
                    <g transform="translate(8 66.08000000000001)">
                        <g class="typst-group">
                            <g/>
                        </g>
                    </g>
                    <g transform="translate(8 66.08000000000001)">
                        <g class="typst-group">
                            <g/>
                        </g>
                    </g>
                    <g transform="translate(8 66.08000000000001)">
                        <g class="typst-group">
                            <g/>
                        </g>
                    </g>
                    <g transform="translate(8 54.464000000000006)">
                        <g class="typst-group">
                            <g>
                                <g transform="translate(0 8.976)">
                                    <g class="typst-text" transform="scale(1, -1)">
                                        <use xlink:href="#gBC852F94A0F483E722D5840709B019EA" x="10.56" fill="#ffff00"/>
                                        <use xlink:href="#gFBD659FA53EE4C06163ABC484E574054" x="21.12" fill="#ffff00"/>
                                        <use xlink:href="#gFBD659FA53EE4C06163ABC484E574054" x="26.400000000000002" fill="#ffff00"/>
                                        <use xlink:href="#gFBD659FA53EE4C06163ABC484E574054" x="31.680000000000003" fill="#ffff00"/>
                                        <use xlink:href="#gFBD659FA53EE4C06163ABC484E574054" x="36.96" fill="#ffff00"/>
                                        <use xlink:href="#gBC852F94A0F483E722D5840709B019EA" x="47.52" fill="#ffff00"/>
                                    </g>
                                </g>
                            </g>
                        </g>
                    </g>
                    <g transform="translate(60.8 54.464000000000006)">
                        <g class="typst-group">
                            <g/>
                        </g>
                    </g>
                    <g transform="translate(8 66.08000000000001)">
                        <g class="typst-group">
                            <g/>
                        </g>
                    </g>
                    <g transform="translate(8 77.69600000000001)">
                        <g class="typst-group">
                            <g/>
                        </g>
                    </g>
                </g>
            </g>
        </g>
    </g>
    <defs id="glyph">
        <symbol id="g45C544E5050795A0DB9B642A0F86EEF6" overflow="visible">
            <path d="M 0.528 -1.2144 L 0.528 -0.22 L 4.752 -0.22 L 4.752 -1.2144 L 0.528 -1.2144 Z "/>
        </symbol>
        <symbol id="gEA462781DB655E9FC41D13FE877043C1" overflow="visible">
            <path d="M 0.528 -0.968 L 3.608 7.304 L 4.752 7.304 L 1.6719999 -0.968 L 0.528 -0.968 Z "/>
        </symbol>
        <symbol id="gBC852F94A0F483E722D5840709B019EA" overflow="visible">
            <path d="M 2.2792 5.676 L 1.2584 6.908 L 2.4728 6.908 L 3.4144 5.676 L 2.2792 5.676 Z "/>
        </symbol>
        <symbol id="g40C668FB4E37D9F21E1980C2683B7C07" overflow="visible">
            <path d="M 3.5992 -0.968 L 0.528 7.304 L 1.6719999 7.304 L 4.7432 -0.968 L 3.5992 -0.968 Z "/>
        </symbol>
        <symbol id="g9E2918126B06D8427DFD8C44236F351E" overflow="visible">
            <path d="M 2.0856 -0.968 L 2.0856 7.304 L 3.1944 7.304 L 3.1944 -0.968 L 2.0856 -0.968 Z "/>
        </symbol>
        <symbol id="g8EA9D70746F003244FAF6FAAA20098B7" overflow="visible">
            <path d="M 2.6399999 3.4584 Q 2.2616 3.4584 2.0416 3.6608 Q 1.8216 3.8632 1.8216 4.1976 Q 1.8216 4.5232 2.0416 4.7256 Q 2.2616 4.928 2.6399999 4.928 Q 3.0184 4.928 3.2384 4.7256 Q 3.4584 4.5232 3.4584 4.1976 Q 3.4584 3.8632 3.2384 3.6608 Q 3.0184 3.4584 2.6399999 3.4584 Z M 2.6399999 -0.088 Q 2.2616 -0.088 2.0416 0.1144 Q 1.8216 0.3168 1.8216 0.6424 Q 1.8216 0.97679996 2.0416 1.1791999 Q 2.2616 1.3816 2.6399999 1.3816 Q 3.0184 1.3816 3.2384 1.1791999 Q 3.4584 0.97679996 3.4584 0.6424 Q 3.4584 0.3168 3.2384 0.1144 Q 3.0184 -0.088 2.6399999 -0.088 Z "/>
        </symbol>
        <symbol id="gFBD659FA53EE4C06163ABC484E574054" overflow="visible">
            <path d="M 1.232 2.3936 L 1.232 3.4144 L 4.048 3.4144 L 4.048 2.3936 L 1.232 2.3936 Z "/>
        </symbol>
        <symbol id="g57025DAD0FEDA5EF754FB8ABC27D245D" overflow="visible">
            <path d="M 2.6399999 -0.088 Q 2.2704 -0.088 2.046 0.1364 Q 1.8216 0.3608 1.8216 0.7216 Q 1.8216 1.0824 2.046 1.3112 Q 2.2704 1.54 2.6399999 1.54 Q 3.0096 1.54 3.234 1.3112 Q 3.4584 1.0824 3.4584 0.7216 Q 3.4584 0.3608 3.234 0.1364 Q 3.0096 -0.088 2.6399999 -0.088 Z "/>
        </symbol>
        <symbol id="gC6C8A06ACA3F2258CFC932E1F8DC0306" overflow="visible">
            <path d="M -4.752 -1.2144 L -4.752 -0.22 L 4.752 -0.22 L 4.752 -1.2144 L -4.752 -1.2144 Z "/>
        </symbol>
    </defs>
</svg>
